img/icon-house.svg

<svg width="75" height="72" viewBox="0 0 75 72" fill="none" xmlns="http://www.w3.org/2000/svg">
<path fill-rule="evenodd" clip-rule="evenodd" d="M45.656 65.033H29.656V41.21H45.656V65.033ZM42.718 44.134H32.593V62.11H42.718V44.134Z" fill="#81B3D2"/>
<path fill-rule="evenodd" clip-rule="evenodd" d="M72.7711 39.253L74.8471 37.185L64.9391 27.32V0H51.1271V13.567L37.5001 0L0.1521 37.185L2.2291 39.253L10.0611 31.458V69.076H6.1241V72H69.9991V69.076H64.9401V31.458L72.7711 39.253ZM62.0021 69.076H12.9991V28.534L37.5001 4.149L62.0021 28.534V69.076ZM54.0641 16.492L62.0021 24.394V2.924H54.0641V16.492Z" fill="#81B3D2"/>
<path fill-rule="evenodd" clip-rule="evenodd" d="M37.656 34.7929C33.376 34.7929 29.906 31.3409 29.906 27.0799C29.906 22.8209 33.375 19.3669 37.656 19.3669C41.935 19.3669 45.406 22.8209 45.406 27.0799C45.406 31.3409 41.935 34.7929 37.656 34.7929ZM42.625 27.0799C42.625 24.3489 40.4 22.1349 37.656 22.1349C34.911 22.1349 32.686 24.3489 32.686 27.0799C32.686 29.8119 34.91 32.0279 37.656 32.0279C40.4 32.0279 42.625 29.8119 42.625 27.0799ZM17.061 41.2099H20.061V45.1289H17.061V41.2099ZM25.999 41.2099H22.999V45.1289H25.999V41.2099ZM17.061 47.1819H20.061V51.1009H17.061V47.1819ZM25.999 47.1819H22.999V51.1009H25.999V47.1819ZM48.998 41.2099H51.998V45.1289H48.998V41.2099ZM57.936 41.2099H54.936V45.1289H57.936V41.2099ZM48.998 47.1819H51.998V51.1009H48.998V47.1819ZM57.936 47.1819H54.936V51.1009H57.936V47.1819Z" fill="#81B3D2"/>
</svg>

<svg width="75" height="72" fill="none" xmlns="http://www.w3.org/2000/svg"><path fill-rule="evenodd" clip-rule="evenodd" d="M45.656 65.033h-16V41.21h16v23.823zm-2.938-20.899H32.593V62.11h10.125V44.134z" fill="#81B3D2"/><path fill-rule="evenodd" clip-rule="evenodd" d="M72.771 39.253l2.076-2.068-9.908-9.865V0H51.127v13.567L37.5 0 .152 37.185l2.077 2.068 7.832-7.795v37.618H6.124V72H70v-2.924H64.94V31.458l7.831 7.795zM62.002 69.076H13V28.534L37.5 4.149l24.502 24.385v40.542zm-7.938-52.584l7.938 7.902V2.924h-7.938v13.568z" fill="#81B3D2"/><path fill-rule="evenodd" clip-rule="evenodd" d="M37.656 34.793c-4.28 0-7.75-3.452-7.75-7.713 0-4.26 3.469-7.713 7.75-7.713 4.279 0 7.75 3.454 7.75 7.713 0 4.26-3.471 7.713-7.75 7.713zm4.969-7.713c0-2.731-2.225-4.945-4.969-4.945-2.745 0-4.97 2.214-4.97 4.945 0 2.732 2.224 4.948 4.97 4.948 2.744 0 4.969-2.216 4.969-4.948zM17.061 41.21h3v3.919h-3v-3.92zm8.938 0h-3v3.919h3v-3.92zm-8.938 5.972h3V51.1h-3v-3.92zm8.938 0h-3V51.1h3v-3.92zm22.999-5.972h3v3.919h-3v-3.92zm8.938 0h-3v3.919h3v-3.92zm-8.938 5.972h3V51.1h-3v-3.92zm8.938 0h-3V51.1h3v-3.92z" fill="#81B3D2"/></svg>
